RestoDelMundo/Republica Checa/Otras Categorias/Vitkovice Fc.svg

<svg xmlns="http://www.w3.org/2000/svg" viewBox="0 0 660 660"><path d="M170.282 47.588H489.87c1.869 17.324 5.679 32.491 18.761 45.142 12.076 11.717 26.884 16.03 43.201 17.755l8.627 11.645c-12.795 11.07-22.14 21.996-28.034 38.313-4.672 13.083-6.541 27.387-6.541 41.908v283.143c0 22.93-5.104 23.434-22.5 32.994l-173.308 95.1-173.308-95.1c-17.395-9.56-22.499-10.063-22.499-32.994V202.351c0-14.521-1.869-28.825-6.541-41.908-5.894-16.317-15.239-27.243-28.034-38.313l8.626-11.645c16.317-1.725 31.125-6.038 43.201-17.755 13.082-12.651 16.892-27.818 18.761-45.142"/><path fill="#cd1e25" d="M127.943 131.259c5.535 7.619 9.776 15.886 12.867 24.512 5.607 15.455 7.404 31.628 7.404 47.945h363.724c0-16.317 1.797-32.491 7.404-47.945 3.091-8.626 7.332-16.893 12.867-24.512z"/><path fill="#fff" d="M182.501 61.533c-2.803 15.598-9.776 29.975-21.349 41.189-6.11 5.966-13.514 10.926-22.283 14.664h382.413c-8.77-3.738-16.174-8.698-22.284-14.664-11.573-11.214-18.545-25.59-21.349-41.189z"/><path fill="#3260ad" d="m450.335 531.714 46.364-25.446c10.853-5.966 15.238-5.607 15.238-20.774V217.589h-61.603v314.125zM148.214 217.589v267.905c0 15.167 4.385 14.808 15.239 20.774l46.364 25.446V217.589z"/><path fill="#cd1e25" d="M292.266 109.694V69.656h30.766v8.338h-19.84v8.339h17.18v9.344h-17.18v14.017ZM367.743 95.677q-1.078 7.224-6.039 11.214c-3.307 2.588-7.548 3.954-12.795 3.954-6.254 0-11.357-1.941-15.167-5.75s-5.679-8.841-5.679-15.095c0-6.469 1.94-11.645 5.75-15.527 3.954-3.81 9.129-5.751 15.743-5.751 5.175 0 9.417 1.294 12.723 3.81 3.234 2.588 5.103 6.038 5.607 10.495h-10.279c-.503-1.941-1.509-3.378-2.876-4.385-1.438-.935-3.234-1.438-5.535-1.438-3.091 0-5.535 1.15-7.26 3.378-1.797 2.301-2.731 5.391-2.731 9.345 0 3.882.862 6.973 2.588 9.129q2.48 3.235 7.116 3.235c2.444 0 4.385-.575 5.894-1.725 1.51-1.078 2.444-2.731 2.804-4.888z"/><path fill="#fff" d="m184.443 190.633-14.592-41.548h11.573l5.966 21.349c.072.359.288.934.503 1.725.719 2.588 1.294 4.744 1.653 6.469.216-.862.503-1.869.79-3.019s.719-2.66 1.294-4.529l6.685-21.996h11.501l-15.167 41.548h-10.206zM213.915 149.085h10.782v41.548h-10.782ZM241.301 190.633v-33.137h-12.075v-8.411h34.934v8.411h-12.076v33.137ZM268.832 190.633v-41.548h11.142v16.246l13.37-16.246 14.089.288L290.9 168.35l19.48 22.283h-15.454l-14.952-16.748v16.748Z"/><path fill="#fff" d="M319.438 169.859c0 4.241.863 7.476 2.66 9.776 1.725 2.228 4.241 3.378 7.476 3.378s5.75-1.15 7.476-3.378c1.797-2.301 2.66-5.536 2.66-9.776 0-4.169-.863-7.404-2.66-9.704-1.726-2.228-4.241-3.378-7.476-3.378s-5.75 1.15-7.476 3.378c-1.798 2.301-2.66 5.535-2.66 9.704m-10.927 0c0-6.685 1.869-12.076 5.679-15.958 3.738-3.954 8.913-5.894 15.383-5.894s11.645 1.941 15.454 5.894 5.751 9.273 5.751 15.958c0 6.757-1.941 12.076-5.751 16.03-3.809 3.882-8.985 5.894-15.454 5.894s-11.645-2.013-15.383-5.894c-3.81-3.953-5.679-9.272-5.679-16.03M366.879 190.633l-14.52-41.548h11.501l5.894 21.349c.143.359.288.934.503 1.725.719 2.588 1.294 4.744 1.653 6.469.215-.862.503-1.869.79-3.019q.432-1.725 1.294-4.529l6.182-21.996h11.357l-14.521 41.548h-10.133zM396.783 149.085h10.782v41.548h-10.782ZM452.348 176.042c-.719 5.032-2.732 8.841-5.966 11.573-3.235 2.804-7.475 4.169-12.579 4.169-6.182 0-11.142-2.013-14.952-5.966s-5.679-9.201-5.679-15.67c0-6.685 1.94-12.076 5.75-16.03 3.882-4.025 9.057-6.038 15.455-6.038 5.176 0 9.345 1.293 12.579 3.953s5.032 6.253 5.535 10.854h-10.135c-.503-1.94-1.438-3.45-2.803-4.456-1.438-1.006-3.235-1.51-5.463-1.51-3.019 0-5.463 1.15-7.188 3.523-1.725 2.3-2.66 5.535-2.66 9.632 0 4.025.862 7.189 2.516 9.417 1.653 2.3 4.026 3.378 7.045 3.378q3.558 0 5.822-1.725c1.438-1.15 2.372-2.875 2.732-5.103h9.991zM457.092 190.633v-41.548h32.562v8.555h-21.277v7.332h19.409v8.266h-19.409v8.195h21.924v9.2ZM222.684 146.282h-5.894l5.175-12.363h10.351ZM307.001 348.487l-15.382-21.062-24.08 7.26-12.508 38.529 15.167 20.127 24.871-8.051ZM349.269 345.899l15.454-21.205-14.448-20.702h-40.398l-14.448 20.702 15.454 21.205ZM365.082 385.29l24.872 8.051 15.167-20.127-12.508-38.529-24.08-7.26-15.383 21.062ZM332.376 412.677v25.878l23.865 8.267 32.706-23.793-.431-25.231-24.655-8.051ZM403.468 322.465c-11.142-15.095-26.669-26.596-44.783-32.634l-4.744 11.357 15.095 21.564 25.159 7.691zM404.043 429.498c10.71-14.88 17.036-33.066 17.18-52.618l-12.22-1.079-15.886 21.061.503 26.309zM302.401 463.211a90.6 90.6 0 0 0 27.675 4.313c9.632 0 18.905-1.51 27.674-4.313l-2.803-11.933-24.871-8.554-24.871 8.554zM238.929 376.88c.144 19.552 6.469 37.738 17.18 52.618l10.423-6.326.503-26.309-15.886-21.061zM301.467 289.831c-18.114 6.038-33.641 17.539-44.783 32.634l9.273 7.979 25.159-7.691 15.095-21.564zM296.291 389.747l-24.655 8.051-.431 25.231 32.706 23.793 23.865-8.267v-25.878Z"/><path fill="#3260ad" d="M360.842 285.662v-68.073H299.31v68.073c9.633-3.307 20.056-5.104 30.766-5.104 10.711 0 21.134 1.797 30.766 5.104M299.31 580.81l30.766 16.892 30.766-16.892V467.02c-9.632 3.307-20.055 5.103-30.766 5.103s-21.133-1.797-30.766-5.103z"/><path fill="#fff" d="m223.762 539.406 61.603 33.785V460.982c-30.334-16.102-51.037-48.017-51.037-84.677 0-36.588 20.703-68.432 51.037-84.604V217.59h-61.603zM374.787 573.19l61.603-33.785V217.589h-61.603V291.7c30.335 16.173 51.037 48.017 51.037 84.604 0 36.66-20.702 68.576-51.037 84.677z"/></svg>

<svg enable-background="new 0 0 660 660" viewBox="0 0 660 660" xmlns="http://www.w3.org/2000/svg"><path d="M 170.282 47.588 H 489.87 c 1.869 17.324 5.679 32.491 18.761 45.142 c 12.076 11.717 26.884 16.03 43.201 17.755 l 8.627 11.645 c -12.795 11.07 -22.14 21.996 -28.034 38.313 c -4.672 13.083 -6.541 27.387 -6.541 41.908 v 283.143 c 0 22.93 -5.104 23.434 -22.5 32.994 l -173.308 95.1 l -173.308 -95.1 c -17.395 -9.56 -22.499 -10.063 -22.499 -32.994 V 202.351 c 0 -14.521 -1.869 -28.825 -6.541 -41.908 c -5.894 -16.317 -15.239 -27.243 -28.034 -38.313 l 8.626 -11.645 c 16.317 -1.725 31.125 -6.038 43.201 -17.755 C 164.603 80.079 168.413 64.912 170.282 47.588 z"/><path d="M 127.943 131.259 c 5.535 7.619 9.776 15.886 12.867 24.512 c 5.607 15.455 7.404 31.628 7.404 47.945 h 363.724 c 0 -16.317 1.797 -32.491 7.404 -47.945 c 3.091 -8.626 7.332 -16.893 12.867 -24.512 H 127.943 z" fill="#cd1e25"/><path d="M 182.501 61.533 c -2.803 15.598 -9.776 29.975 -21.349 41.189 c -6.11 5.966 -13.514 10.926 -22.283 14.664 h 382.413 c -8.77 -3.738 -16.174 -8.698 -22.284 -14.664 c -11.573 -11.214 -18.545 -25.59 -21.349 -41.189 H 182.501 z" fill="#fff"/><path d="M 450.335 531.714 l 46.364 -25.446 c 10.853 -5.966 15.238 -5.607 15.238 -20.774 V 217.589 h -61.603 V 531.714 z" fill="#3260ad"/><path d="M 148.214 217.589 v 267.905 c 0 15.167 4.385 14.808 15.239 20.774 l 46.364 25.446 V 217.589 H 148.214 z" fill="#3260ad"/><path d="M 292.266 109.694 L 292.266 69.656 L 323.032 69.656 L 323.032 77.994 L 303.192 77.994 L 303.192 86.333 L 320.372 86.333 L 320.372 95.677 L 303.192 95.677 L 303.192 109.694 Z" fill="#cd1e25"/><path d="M 367.743 95.677 c -.719 4.816 -2.732 8.554 -6.039 11.214 c -3.307 2.588 -7.548 3.954 -12.795 3.954 c -6.254 0 -11.357 -1.941 -15.167 -5.75 c -3.81 -3.81 -5.679 -8.841 -5.679 -15.095 c 0 -6.469 1.94 -11.645 5.75 -15.527 c 3.954 -3.81 9.129 -5.751 15.743 -5.751 c 5.175 0 9.417 1.294 12.723 3.81 c 3.234 2.588 5.103 6.038 5.607 10.495 h -10.279 c -.503 -1.941 -1.509 -3.378 -2.876 -4.385 c -1.438 -.935 -3.234 -1.438 -5.535 -1.438 c -3.091 0 -5.535 1.15 -7.26 3.378 c -1.797 2.301 -2.731 5.391 -2.731 9.345 c 0 3.882 .862 6.973 2.588 9.129 c 1.653 2.156 4.025 3.235 7.116 3.235 c 2.444 0 4.385 -.575 5.894 -1.725 c 1.51 -1.078 2.444 -2.731 2.804 -4.888 H 367.743 z" fill="#cd1e25"/><path d="M 184.443 190.633 l -14.592 -41.548 h 11.573 l 5.966 21.349 c .072 .359 .288 .934 .503 1.725 c .719 2.588 1.294 4.744 1.653 6.469 c .216 -.862 .503 -1.869 .79 -3.019 s .719 -2.66 1.294 -4.529 l 6.685 -21.996 h 11.501 l -15.167 41.548 H 184.443 z" fill="#fff"/><path d="M 213.915 149.085 H 224.697 V 190.633 H 213.915 Z" fill="#fff"/><path d="M 241.301 190.633 L 241.301 157.496 L 229.226 157.496 L 229.226 149.085 L 264.16 149.085 L 264.16 157.496 L 252.084 157.496 L 252.084 190.633 Z" fill="#fff"/><path d="M 268.832 190.633 L 268.832 149.085 L 279.974 149.085 L 279.974 165.331 L 293.344 149.085 L 307.433 149.373 L 290.9 168.35 L 310.38 190.633 L 294.926 190.633 L 279.974 173.885 L 279.974 190.633 Z" fill="#fff"/><path d="M 319.438 169.859 c 0 4.241 .863 7.476 2.66 9.776 c 1.725 2.228 4.241 3.378 7.476 3.378 c 3.235 0 5.75 -1.15 7.476 -3.378 c 1.797 -2.301 2.66 -5.536 2.66 -9.776 c 0 -4.169 -.863 -7.404 -2.66 -9.704 c -1.726 -2.228 -4.241 -3.378 -7.476 -3.378 c -3.235 0 -5.75 1.15 -7.476 3.378 C 320.3 162.456 319.438 165.69 319.438 169.859 L 319.438 169.859 z M 308.511 169.859 c 0 -6.685 1.869 -12.076 5.679 -15.958 c 3.738 -3.954 8.913 -5.894 15.383 -5.894 c 6.469 0 11.645 1.941 15.454 5.894 c 3.81 3.954 5.751 9.273 5.751 15.958 c 0 6.757 -1.941 12.076 -5.751 16.03 c -3.809 3.882 -8.985 5.894 -15.454 5.894 c -6.47 0 -11.645 -2.013 -15.383 -5.894 C 310.38 181.936 308.511 176.617 308.511 169.859 z" fill="#fff"/><path d="M 366.879 190.633 l -14.52 -41.548 h 11.501 l 5.894 21.349 c .143 .359 .288 .934 .503 1.725 c .719 2.588 1.294 4.744 1.653 6.469 c .215 -.862 .503 -1.869 .79 -3.019 c .288 -1.15 .719 -2.66 1.294 -4.529 l 6.182 -21.996 h 11.357 l -14.521 41.548 H 366.879 z" fill="#fff"/><path d="M 396.783 149.085 H 407.565 V 190.633 H 396.783 Z" fill="#fff"/><path d="M 452.348 176.042 c -.719 5.032 -2.732 8.841 -5.966 11.573 c -3.235 2.804 -7.475 4.169 -12.579 4.169 c -6.182 0 -11.142 -2.013 -14.952 -5.966 c -3.81 -3.954 -5.679 -9.201 -5.679 -15.67 c 0 -6.685 1.94 -12.076 5.75 -16.03 c 3.882 -4.025 9.057 -6.038 15.455 -6.038 c 5.176 0 9.345 1.293 12.579 3.953 c 3.235 2.66 5.032 6.253 5.535 10.854 h -10.135 c -.503 -1.94 -1.438 -3.45 -2.803 -4.456 c -1.438 -1.006 -3.235 -1.51 -5.463 -1.51 c -3.019 0 -5.463 1.15 -7.188 3.523 c -1.725 2.3 -2.66 5.535 -2.66 9.632 c 0 4.025 .862 7.189 2.516 9.417 c 1.653 2.3 4.026 3.378 7.045 3.378 c 2.372 0 4.313 -.575 5.822 -1.725 c 1.438 -1.15 2.372 -2.875 2.732 -5.103 H 452.348 z" fill="#fff"/><path d="M 457.092 190.633 L 457.092 149.085 L 489.654 149.085 L 489.654 157.64 L 468.377 157.64 L 468.377 164.972 L 487.786 164.972 L 487.786 173.238 L 468.377 173.238 L 468.377 181.433 L 490.301 181.433 L 490.301 190.633 Z" fill="#fff"/><path d="M 222.684 146.282 L 216.79 146.282 L 221.965 133.919 L 232.316 133.919 Z" fill="#fff"/><path d="M 307.001 348.487 L 291.619 327.425 L 267.539 334.685 L 255.031 373.214 L 270.198 393.341 L 295.069 385.29 Z" fill="#fff"/><path d="M 349.269 345.899 L 364.723 324.694 L 350.275 303.992 L 309.877 303.992 L 295.429 324.694 L 310.883 345.899 Z" fill="#fff"/><path d="M 365.082 385.29 L 389.954 393.341 L 405.121 373.214 L 392.613 334.685 L 368.533 327.425 L 353.15 348.487 Z" fill="#fff"/><path d="M 332.376 412.677 L 332.376 438.555 L 356.241 446.822 L 388.947 423.029 L 388.516 397.798 L 363.861 389.747 Z" fill="#fff"/><path d="M 403.468 322.465 c -11.142 -15.095 -26.669 -26.596 -44.783 -32.634 l -4.744 11.357 l 15.095 21.564 l 25.159 7.691 L 403.468 322.465 z" fill="#fff"/><path d="M 404.043 429.498 c 10.71 -14.88 17.036 -33.066 17.18 -52.618 l -12.22 -1.079 l -15.886 21.061 l .503 26.309 L 404.043 429.498 z" fill="#fff"/><path d="M 302.401 463.211 c 8.77 2.803 18.042 4.313 27.675 4.313 c 9.632 0 18.905 -1.51 27.674 -4.313 l -2.803 -11.933 l -24.871 -8.554 l -24.871 8.554 L 302.401 463.211 z" fill="#fff"/><path d="M 238.929 376.88 c .144 19.552 6.469 37.738 17.18 52.618 l 10.423 -6.326 l .503 -26.309 l -15.886 -21.061 L 238.929 376.88 z" fill="#fff"/><path d="M 301.467 289.831 c -18.114 6.038 -33.641 17.539 -44.783 32.634 l 9.273 7.979 l 25.159 -7.691 l 15.095 -21.564 L 301.467 289.831 z" fill="#fff"/><path d="M 296.291 389.747 L 271.636 397.798 L 271.205 423.029 L 303.911 446.822 L 327.776 438.555 L 327.776 412.677 Z" fill="#fff"/><path d="M 360.842 285.662 v -68.073 H 299.31 v 68.073 c 9.633 -3.307 20.056 -5.104 30.766 -5.104 C 340.787 280.558 351.21 282.355 360.842 285.662 z" fill="#3260ad"/><path d="M 299.31 580.81 l 30.766 16.892 l 30.766 -16.892 v -113.79 c -9.632 3.307 -20.055 5.103 -30.766 5.103 c -10.711 0 -21.133 -1.797 -30.766 -5.103 V 580.81 z" fill="#3260ad"/><path d="M 223.762 539.406 l 61.603 33.785 V 460.982 c -30.334 -16.102 -51.037 -48.017 -51.037 -84.677 c 0 -36.588 20.703 -68.432 51.037 -84.604 v -74.111 h -61.603 V 539.406 z" fill="#fff"/><path d="M 374.787 573.19 l 61.603 -33.785 V 217.589 h -61.603 V 291.7 c 30.335 16.173 51.037 48.017 51.037 84.604 c 0 36.66 -20.702 68.576 -51.037 84.677 V 573.19 z" fill="#fff"/></svg>
